X: 27795
T: Morris Wynn's Delight
R: reel
M: 4/4
K: Aminor
A2 c2 B2 d2|c3 B A2 Bc|d3 e d2 c2|B2 Bc d2 B2|
c3 d e2 c2|f2 e2 d2 c2|B3 A ^GABG|A6:|
c4 B2 A2|^GABc B2 ^G2|A2 e2 cd e2|d3 c de f2|
a2 e2 fe d2|e2 c2 dc B2|c2 A2 Bcdc|BcBA ^G3 E|
A3 c B2 (3Bcd|c2 B2 A2 (3ABc|d2 de d2 c2|B3 c d2 B2|
c2 d2 e2 c2|f3 e d2 c2|B2 BA ^G2 e2|A6||

